X:1
T:The Haughs of Cromdale
M:C|
L:1/8
Q:80
C:Trad.
S:2/4 March
K:HP
a |: \
{ef}e{g}A{GAG}A{g}B/4d3/4 | \
{gef}e3/2d/2{gBd}B{Gdc}d | \
{gef}e{g}A{GAG}A{gBd}B3/4A/4 |
{g}G3/2A/2{g}B{Gdc}d | \
{gef}e{g}A{GAG}A{g}B/4d3/4 | \
{gef}e3/2d/2{gBd}B{Gdc}d |
{gef}e{g}d{gf}gB | \
{gBd}B{e}A{GAG}A :| \
a[ |
{ef}e2{GdG}e3/2f/2 | \
{gf}ga{f}ge | \
{Gdc}de{Gdc}d{e}B |
{Gdc}d3/2e/2{Gdc}d{e}B | \
{gef}e2{GdG}e3/2f/2 | \
{gf}ga{f}ge |
{Gdc}d{e}B{gf}gB | \
{gBd}B{e}A{GAG}A|]
a[ |
{ef}e2{GdG}e3/2f/2 | \
{gf}ga{f}ge | \
{Gdc}de{Gdc}d{e}B |
{Gdc}d3/2e/2{g}f{g}d | \
{gef}e2{GdG}e3/2f/2 | \
{gf}ga{f}ge |
{Gdc}d{e}B{gf}gB | \
{gBd}B{e}A{GAG}A|]
a|:
{ef}e{g}A{GAG}A2 | \
{gef}e3/2A/2{gef}e3/2d/2 | \
{gBd}B3/2A/2{g}G{dc}d |
{gBd}B{e}A{gBd}B{Gdc}d | \
{gef}e{g}A{GAG}A2 | \
{gf}g3/2f/2{gef}e{gf}g |
{Gdc}d3/2B/2{g}G{d}B | \
{g}A2{GAG}A :| \
{gBd}B3/4A/4|:
{g}G3/2{d}B/2{gf}ga | \
{f}gf/4{g}e3/4{gf}g2 | \
{a}G3/2B/2{Gdc}de |
{g}ed/4{e}B3/4{Gdc}d2 | \
{gef}e2{GdG}e{gf}g | \
a2{GdG}ag |
{a}ef/4g3/4{Gdc}d3/2B/2 | \
{g}A2{GAG}A :|
